!!!!SEGMENT: pl-kk--kk-i-3--007-006_anonim--officium-secundum-mittit-ad-virginem.krn
!!!cenid: 15xx:594
!!!COM: Anonim
!!!COM-rismid: pe30004985
!!!CDT:
!!!CNT:
!!!OPR: Officium Secundum
!!!OTL: Mittit ad Virginem
!!!OMV: 006
!!!PDT:
!!!AGN:
!!!SMS-siglum: PL-Kk
!!!SMS-shelfmark: Kk.I.3
!!!SMS-shelfwork: 007-006 M
!!!SMS-variant:
!!!SMS-altvar:
!!!NIFC-rismid: 1001145513
!!!URL-scan: http://repozytorium.nifc.pl/skany/pl-kk-nut--i-3
!!!ONB-nifc: UWAGA: Discantus (s. 34r-36r, skan 0036-0038), Tenor (s. 25v-26v, skan 0198-0199), Bassus (s. 32r-33v, skan 0335-0337). Następna część: Ave Maria
**kern	**text	**text	**kern	**text	**text	**kern	**text	**text
*part3	*part3	*part3	*part2	*part2	*part2	*part1	*part1	*part1
*staff3	*staff3	*staff3	*staff2	*staff2	*staff2	*staff1	*staff1	*staff1
*I"Bassus	*	*	*I"Tenor	*	*	*I"Discantus	*	*
*I'B	*	*	*I'T	*	*	*I'A	*	*
*Ibass	*	*	*Itenor	*	*	*Ialto	*	*
*ICvox	*	*	*ICvox	*	*	*ICvox	*	*
*clefF4	*	*	*clefF3	*	*	*clefC3	*	*
*k[]	*	*	*k[]	*	*	*k[]	*	*
*C:	*	*	*C:	*	*	*C:	*	*
*M3/1	*	*	*M3/1	*	*	*M3/1	*	*
=1-	=1-	=1-	=1-	=1-	=1-	=1-	=1-	=1-
!LO:TX:t=P:problem:w tej linijce przy kluczu zbędny bemol B-	!	!	!	!	!	!	!	!
1C	Mit-	For-	1C	Mi-	for-	1c	Mit-	For-
!	!	!	!LO:TX:t=P:problem:oddech jako rozdzielacz słów:global	!	!	!	!	!
1BB	-tit	-te(m)	1F,<	-tit	-te(m)	1d	-tit	-te(m)
1D	ad	ex-	1F,<	ad	ex-	1A	ad	ex-
=2-	=2-	=2-	=2-	=2-	=2-	=2-	=2-	=2-
1C	vir-	-pe-	1G	vir-	-pe-	1c	vir-	-pe-
1C	-gi-	-di-	1E	-gi-	-di-	1c	-gi-	di-
2FF/	-ne(m)	at	1F,<	-ne(m)	-at	1A	-nem	-at
1F\	no(n)	pro	.	.	.	.	.	.
=3-	=3-	=3-	=3-	=3-	=3-	=3-	=3-	=3-
.	.	.	1G	no(n)	pro	1G	.	.
2E/	que(m)	no-	.	.	.	.	.	.
1F	.	.	1A	que(m)-	no-	2F/	no(n)	pro
.	.	.	.	.	.	1f	quem-	no-
1G	-vis	.	1B,<	-uis	-bis	.	.	.
*	*	*	*	*	*	*2\right	*	*
.	.	.	.	.	.	2e\	.	-bis
=4-	=4-	=4-	=4-	=4-	=4-	=4-	=4-	=4-
2D/	an-	-bis	1A	an-	nun-	2f\	-vis	.
2F/	.	nu(n)-	.	.	.	1c	an-	nu(n)-
*custos:C	*	*	*	*	*	*	*	*
!LO:LB:g=original	!	!	!	!	!	!	!	!
1C	-ge-	-ci-	1G	-ge-	-ci-	.	.	.
*	*	*	*	*	*	*custosc	*	*
!	!	!	!	!	!	!LO:LB:g=original	!	!
.	.	.	.	.	.	2c/	-ge-	-ci-
1FF	-lu(m)	-u(m)	1F	-lum	-um	1A	-lu(m)	-u(m)
*	*	*	*custos:A	*	*	*	*	*
!	!	!	!LO:PB:g=original	!	!	!	!	!
=5-	=5-	=5-	=5-	=5-	=5-	=5-	=5-	=5-
1F	ſed	na-	1A	ſed	na-	2c/	ſed	na-
.	.	.	.	.	.	2d/	for-	-tu-
2C/	for-	-tu-	1c	for-	-tu-	2e\	.	-re
*2\right	*	*	*	*	*	*	*	*
2F\	-ti-	-re	.	.	.	2f\	.	fa-
2G\	-tu-	re	1B	-ti-	-re	2d\	.	-ci-
2E/	.	.	.	.	.	1g\	-ti-	-at
=6-	=6-	=6-	=6-	=6-	=6-	=6-	=6-	=6-
1F	.	fa-	1A	-tu-	fa-	.	.	.
.	.	.	.	.	.	1f	-tu-	.
1C	-di-	-ci-	1G	-di-	-ci-	.	.	.
.	.	.	.	.	.	2e\	-di-	.
1D	-ne(m)	-at	1F	-ne(m)	-at	2f\	-ne(m)	.
.	.	.	.	.	.	2F/	ſu-	vt
=7-	=7-	=7-	=7-	=7-	=7-	=7-	=7-	=7-
*	*	*	*lig	*	*	*	*	*
1C	ſu-	vt	1E	ſu-	vt	1G	-am	pre-
1AA	.	.	1F	.	.	1A	ar-	.
*	*	*	*Xlig	*	*	*	*	*
1GG	-am	pre-	1G	-a(m)	pre-	1B	-chan-	-iu-
=8-	=8-	=8-	=8-	=8-	=8-	=8-	=8-	=8-
1BB	ar-	-iu-	1D	ar-	-iu-	2F/	.	-di-
*	*	*	*	*	*	*custos:B	*	*
!	!	!	!	!	!	!LO:PB:g=original	!	!
.	.	.	.	.	.	2B/	.	.
1C	-chan-	-di-	1E	-cha(n)-	-di-	2G/	-ge-	-di-
.	.	.	.	.	.	1c	.	-ci-
1GG	-ge-	-ci-	1D	-ge-	-ci-	.	.	.
.	.	.	.	.	.	2B/	-lum	-vm
=9-	=9-	=9-	=9-	=9-	=9-	=9-	=9-	=9-
!	!	!	!	!	!	!LO:TX:t=P:problem:oddech jako rozdzielacz słów:global	!	!
1G	-lu(m)	-u(m)	1C	-lu(m)	-u(m)	1c,<	.	.
*custos:C	*	*	*	*	*	*	*	*
!LO:LB:g=original	!	!	!	!	!	!	!	!
1C	a-	.	1G	a-	in	1e	a-	in
1D	.	.	1F	-ma-	par-	1f	-ma-	par-
=10-	=10-	=10-	=10-	=10-	=10-	=10-	=10-	=10-
1C	-ma-	in	1G	-tor	-tu	1e	-tor	.
1F	-tor	par-	1A	.	.	1c	.	.
*lig	*	*	*	*	*	*	*	*
1D	ho-	tu	1F	ho-	vir-	1d,<	.	-tu
=11-	=11-	=11-	=11-	=11-	=11-	=11-	=11-	=11-
*	*	*	*lig	*	*	*	*	*
1BB	.	.	1F	-mi-	-gi-	1d	ho-	vir-
*Xlig	*	*	*	*	*	*	*	*
1C	.	vir-	1E	.	.	2e\	.	.
.	.	.	.	.	.	1c	-mi-	-gi-
1D	.	.	1D	.	.	.	.	.
.	.	.	.	.	.	2B/	.	.
*	*	*	*Xlig	*	*	*	*	*
=12-	=12-	=12-	=12-	=12-	=12-	=12-	=12-	=12-
1C	-mi-	-gi-	1E	.	.	1c	.	.
1FF;	-nis	-nis	1F	-nis	-nis	1c;<	-nis	-nis
*	*	*	*custos:A	*	*	*custos:e	*	*
!	!	!	!LO:LB:g=original	!	!	!LO:LB:g=original	!	!
=13||	=13||	=13||	=13||	=13||	=13||	=13||	=13||	=13||
1A	Na-	Su-	1A	Na-	Su-	1e	Na-	Su-
1F	-tu-	-per-	1c	-tu-	-per-	1f	-tu-	-per-
1F	-ra(m)	-bi-	1c	-ra(m)	-bi-	1f	-ram	-bi-
=14-	=14-	=14-	=14-	=14-	=14-	=14-	=14-	=14-
1G	ſu-	-en-	1B	ſu-	-en-	1d	ſu-	-en-
1D	-pe-	-ci-	1A	-pe-	-ci-	2d\	-pe-	-ci-
.	.	.	.	.	.	2f\	.	.
*custos:E	*	*	*	*	*	*	*	*
!LO:PB:g=original	!	!	!	!	!	!	!	!
1E	-rat	-u(m)	1G	-rat	-um	1e,<	-rat	-u(m)
=15-	=15-	=15-	=15-	=15-	=15-	=15-	=15-	=15-
1F	na-	ter-	1A	na-	te-	1c	na-	ter-
1D	-t(us)	-rat	1F	-tus	-rat	1d	-tus	-rat
1BB	rex	faſ-	1B	rex	fas-	1d	rex	fa-
=16-	=16-	=16-	=16-	=16-	=16-	=16-	=16-	=16-
1F	glo-	-ti-	1A	glo-	-ti-	2c/	glo-	-ſti-
.	.	.	.	.	.	1f	-ri-	-gi-
1C	-ri-	-gi-	1G	-ri-	-gi-	.	.	.
.	.	.	.	.	.	2e\	.	.
1FF	-e	-a	1A	-e	-a	1f	-e	-a
*	*	*	*	*	*	*custos:f	*	*
!	!	!	!	!	!	!LO:LB:g=original	!	!
=17-	=17-	=17-	=17-	=17-	=17-	=17-	=17-	=17-
1F	re-	co-	1A	re-	col-	1f	re-	a
2C/	-gnat	-la	1c	-gnat	-la	2e\	.	col-
2F/	et	ſub-	.	.	.	2f\	.	-la
2E/	.	.	1c	et	ſub-	2g\	-gnat	ſub-
2F/	.	.	.	.	.	2f\	.	-li-
=18-	=18-	=18-	=18-	=18-	=18-	=18-	=18-	=18-
2G/	.	.	1B	im-	-li-	2d/	et	-mi-
2E/	im-	-li-	.	.	.	2e/	im-	.
1F	-pe-	-mi-	1A	-pe-	-mi-	2c/	-pe-	-vm
.	.	.	.	.	.	1f	-rat	.
*custos:C	*	*	*	*	*	*	*	*
!LO:LB:g=original	!	!	!	!	!	!	!	!
1C	-rat	-vm	1G	-rat	-um	.	.	.
.	.	.	.	.	.	2e\	et	.
*	*	*	*custos:A	*	*	*	*	*
!	!	!	!LO:LB:g=original	!	!	!	!	!
=19-	=19-	=19-	=19-	=19-	=19-	=19-	=19-	=19-
1F	et	cal-	1A	et	cal-	1f	Zi-	cal-
1D	zi-	-cet	1F	Zi-	-cet	1f	-ma-	-cet
1BB	-ma-	vi	1B	-ma-	vi	1d	.	vi
=20-	=20-	=20-	=20-	=20-	=20-	=20-	=20-	=20-
1F	-ſco-	pro-	1A	-ſco-	pro-	2c/	-ſco-	pro-
.	.	.	.	.	.	1d	-ri-	-pri-
1C	-ri-	.	1G	-ri-	-pri-	.	.	.
.	.	.	.	.	.	1c	.	.
*	*	*	*lig	*	*	*	*	*
1D	-e	.	1F	-e	-a	.	.	.
.	.	.	.	.	.	2B/	.	.
*	*	*	*	*	*	*custos:c	*	*
!	!	!	!	!	!	!LO:LB:g=original	!	!
=21-	=21-	=21-	=21-	=21-	=21-	=21-	=21-	=21-
1C	tol-	-pri-	1E	.	.	1c	-e	-a
*	*	*	*Xlig	*	*	*	*	*
1C	-lit	-a	1G	tol-	po-	1e	tol-	.
2FF/	.	po-	1A	-lit	-te(n)s	1f	-lis	.
1F\	de	-te(n)s	.	.	.	.	.	.
=22-	=22-	=22-	=22-	=22-	=22-	=22-	=22-	=22-
.	.	.	1F	de	in	2c/	de	po-
1D	.	in	.	.	.	1d	[[po-	-tens
.	.	.	1F	me-	pre-	.	.	.
2BB/	me-	pre-	.	.	.	2d/	-tes]]	in
2C/	.	.	1E	.	.	1c	me-	pre-
2AA/	.	.	.	.	.	.	.	.
=23-	=23-	=23-	=23-	=23-	=23-	=23-	=23-	=23-
1BB	.	.	1D	.	.	1d	[[pre]]	.
*custos:C	*	*	*	*	*	*	*	*
!LO:LB:g=original	!	!	!	!	!	!	!	!
1C	-di-	-li-	1E	-di-	-li-	1c	-di-	-li-
1FF;	-o	-o	1F	-o	-o	1c,<;	-o	-o
=24||	=24||	=24||	=24||	=24||	=24||	=24||	=24||	=24||
1G	Fo-	E-	1C	Fo-	E-	1c	Fo-	E-
1F	-ras	-xi	1D	-ras	-xi	1A	-ras	-xi
1D	e-	qui	1F	e-	qui	1d	e-	qui
=25-	=25-	=25-	=25-	=25-	=25-	=25-	=25-	=25-
2D/	-i-	mi-	1F	-i-	mi-	1d	-i-	mit-
2BB/	.	.	.	.	.	.	.	.
*	*	*	*custos:E	*	*	*custos:c	*	*
!	!	!	!LO:LB:g=original	!	!	!LO:LB:g=original	!	!
1C	-ci-	-te-	1E	-ci-	-te-	1c	-ci-	-te-
1GG	-at	-ris	1G	-as	-ris	1d	-at	-ris
=26-	=26-	=26-	=26-	=26-	=26-	=26-	=26-	=26-
1C	mu(n)-	hec	1E	mu(n)-	hec	1c	mu(n)-	hec
1D	-da-	do-	1F	-da-	do-	2A/	.	do-
.	.	.	.	.	.	1d	-da-	-na
*	*	*	*lig	*	*	*	*	*
1AA	-nu(m)	-na	1E	-nu(m)	-na	.	.	.
.	.	.	.	.	.	2c/	-nu(m)	.
=27-	=27-	=27-	=27-	=27-	=27-	=27-	=27-	=27-
1BB	.	di-	1D	.	.	2d/	.	.
.	.	.	.	.	.	2f\	prin-	di-
*	*	*	*Xlig	*	*	*	*	*
1C	prin-	-ſe-	1E	prin-	diſ-	2e\	.	-ſe-
.	.	.	.	.	.	1c	-ci-	-re
*custos:GG	*	*	*	*	*	*	*	*
!LO:LB:g=original	!	!	!	!	!	!	!	!
1GG	-ci-	-re	1D	-ci-	-se-	.	.	.
.	.	.	.	.	.	2B/	-pe(m)	.
=28-	=28-	=28-	=28-	=28-	=28-	=28-	=28-	=28-
1G	-pe(m)	re-	1C	-pe(m)	-re	1c	ma-	re-
1G	ma-	-vel-	1C	ma-	re-	1e	-tre(m)-	-vel-
1F	-tre(m)-	-la	1D	-tre(m)-	-uel-	1f	-q(ue)	-la
=29-	=29-	=29-	=29-	=29-	=29-	=29-	=29-	=29-
1D	-q(ue)	ve-	1F	-q(ue)	-la	1f	fa-	ve-
2D/	fa-	-te-	1F	fa-	ve-	2f\	.	.
*	*	*	*	*	*	*custos:d	*	*
!	!	!	!	!	!	!LO:PB:g=original	!	!
2BB/	.	.	.	.	.	2d/	.	.
1C	-ci-	.	1E	-ci-	-te-	1c	ci-	-te-
=30-	=30-	=30-	=30-	=30-	=30-	=30-	=30-	=30-
2GG/	-at	-ris	1G	-at	-ris	2B/	-at	-ris
2C/	.	ve-	.	.	.	2c/	.	.
2BB/	ſe-	-la-	1G	ſe-	ve-	2d/	ſe-	ve-
1C	.	.	.	.	.	1e	-cu(m),	-la-
.	.	.	1A	-cu(m)	-la-	.	.	.
2D/	-cu(m)	-me(n)	.	.	.	2f\	.	-me(n)
=31-	=31-	=31-	=31-	=31-	=31-	=31-	=31-	=31-
1BB	par-	li-	1B	par-	-me(n)	1d	.	li-
1F	-ti-	-te-	1A	-ti-	li-	2c/	par-	.
.	.	.	.	.	.	1f	.	.
1C	-ci-	.	1G	-ci-	-te-	.	.	.
.	.	.	.	.	.	2e/	-ti-	-te-
*custos:D	*	*	*custos:F	*	*	*	*	*
!LO:LB:g=original	!	!	!LO:LB:g=original	!	!	!	!	!
=32-	=32-	=32-	=32-	=32-	=32-	=32-	=32-	=32-
*lig	*	*	*lig	*	*	*	*	*
1D	-pe(m)	-re	1F	-pem	-re	1f	-ci-	-re
1C	.	.	1E	.	.	1g,<	-pe(m)	.
*Xlig	*	*	*Xlig	*	*	*	*	*
1C	pa-	vir-	1G	pa-	vir-	1e	p(at)-	vir-
=33-	=33-	=33-	=33-	=33-	=33-	=33-	=33-	=33-
1FF	-tris	-tu-	1A	-tris	-tu-	1f	-ris	-tu-
1BB	im-	-te	1F	im-	-te	1d	.	-te
*	*	*	*	*	*	*custos:c	*	*
!	!	!	!	!	!	!LO:LB:g=original	!	!
*	*	*	*lig	*	*	*	*	*
2FF/	-pe-	nu(n)-	1F	-pe-	nu(n)-	2c/	im-	nu(n)-
2BB/	.	.	.	.	.	2d/	.	.
=34-	=34-	=34-	=34-	=34-	=34-	=34-	=34-	=34-
1C	.	.	1E	.	.	2e/	.	.
.	.	.	.	.	.	1c	-pe-	-ci-
*	*	*	*Xlig	*	*	*	*	*
1D	.	.	1E	-ri-	-ci-	.	.	.
.	.	.	.	.	.	2B/	.	.
1C	-ri-	-ci-	1F	.	.	1c	-ri-	.
=35-	=35-	=35-	=35-	=35-	=35-	=35-	=35-	=35-
!LO:TX:t=P:problem:dopsek w czerwonych kreskach	!	!	!	!	!	!	!	!
0.FF;l	-i	-i	0.Fl	-j	-j	0.c;l	-i	-i
*	*	*	*custos:F	*	*	*	*	*
!	!	!	!LO:LB:g=original	!	!	!	!	!
=36||	=36||	=36||	=36||	=36||	=36||	=36||	=36||	=36||
*	*	*	*clefF2	*	*	*	*	*
!	!	!	! 	!	!	!	!	!
1F	Ac-	Vir-	1F	Ac-	Vir-	1f	Ac-	Vir-
1A	-ce-	-go	1c	-ce-	-go	1e	-ce-	-go
1A	-de	ſus-	1c	-de	ſus-	2e\	-de	ſus-
.	.	.	.	.	.	2f\	nu(n)c-	-pi-
=37-	=37-	=37-	=37-	=37-	=37-	=37-	=37-	=37-
1G	nu(n)c-	-ci-	1d	nu(n)-	-ci-	1g	.	-ci-
*custos:G	*	*	*	*	*	*	*	*
!LO:PB:g=original	!	!	!	!	!	!	!	!
1G	-ci-	-(p)i-	1B	-ci-	-pi-	1g	-ci-	-as
1C	-a	-as	1c	-a	-as	1e	-a	.
*	*	*	*	*	*	*custos:g	*	*
!	!	!	!	!	!	!LO:LB:g=original	!	!
=38-	=38-	=38-	=38-	=38-	=38-	=38-	=38-	=38-
1G	dic	de-	1d	dic	de-	1g	dic	de-
*	*	*	*custos:f	*	*	*	*	*
!	!	!	!LO:PB:g=original	!	!	!	!	!
2F/	a-	-i	1f	a-	-i	1a	a-	-i
2D/	.	.	.	.	.	.	.	.
2E/	.	.	1c	-ue	de-	2g\	-ue	de-
2A\	-ve	de-	.	.	.	2f\	.	.
=39-	=39-	=39-	=39-	=39-	=39-	=39-	=39-	=39-
2G\	co-	-po-	1d	co-	-po-	2g\	co-	.
2F/	.	.	.	.	.	2a\	-mi-	po-
1G	-mi-	-ſi-	1B,<	-mi-	-ſi-	1g	-nus	-ſi-
2C/	-nus	-tu(m)	1c	-(nus)	-tum	1e	dic	.
1c\	dic	in	.	.	.	.	.	.
=40-	=40-	=40-	=40-	=40-	=40-	=40-	=40-	=40-
.	.	.	1d	dic	in	1d	ple-	-tu(m)
2B\	ple-	quo	.	.	.	.	.	.
2A\	-na	per-	1e	ple-	quo	2c/	.	in
2G\	gra-	-fi-	.	.	.	2B/	.	.
1F	-ti-	-ci-	1f,	-na	per-	1A	-na	quo
=41-	=41-	=41-	=41-	=41-	=41-	=41-	=41-	=41-
1C	.	.	1e	gra-	-fi-	2G/	gra-	per-
.	.	.	.	.	.	1g	-ci-	-fi-
*custos:G	*	*	*	*	*	*	*	*
!LO:LB:g=original	!	!	!	!	!	!	!	!
1G	-a	-as	1d	-ti-	-ci-	.	.	.
.	.	.	.	.	.	2g\	-a	-ci-
1C	.	.	1c	-a	-as	1e	dic	-as
=42-	=42-	=42-	=42-	=42-	=42-	=42-	=42-	=42-
1F	dic	caſ-	1A	dic	ca-	2f\	.	ca-
*	*	*	*	*	*	*custos:a	*	*
!	!	!	!	!	!	!LO:LB:g=original	!	!
.	.	.	.	.	.	1a	ar	-stu(m)
2F\	te-	-tu(m)	1c	te-	-ſtu(m)	.	.	.
2E/	.	.	.	.	.	2g\	te-	pro-
2D/	.	.	1d	-cu(m)	pro-	1f	.	.
2BB/	.	.	.	.	.	.	.	.
=43-	=43-	=43-	=43-	=43-	=43-	=43-	=43-	=43-
1C	-cu(m)	.	1c	do-	-po-	1e	-cu(m)	.
*	*	*	*lig	*	*	*	*	*
2G\	do-	pro-	1B	-mi-	-ſi-	2d/	do-	.
2E/	-mi-	-po-	.	.	.	2e\	.	.
1F	.	.	1A	.	.	2c/	.	-po-
.	.	.	.	.	.	1f\	-mi-	-ſi-
=44-	=44-	=44-	=44-	=44-	=44-	=44-	=44-	=44-
1C	.	-ſi-	1G	.	.	.	.	.
.	.	.	.	.	.	2e\	-nus	-tu(m)
*	*	*	*Xlig	*	*	*	*	*
1FF	-n(us)	-tu(m)	1F	-nus	-tu(m)	1f	.	.
1F	et	et	1A	et	et	1f	et	et
=45-	=45-	=45-	=45-	=45-	=45-	=45-	=45-	=45-
2C/	dic	vo-	1c	dic	vo-	2e\	dic	vo-
2F\	ne	-tu(m) te	.	.	.	2f\	ne	-tu(m)
*custos:G	*	*	*custos:B	*	*	*	*	*
!LO:LB:g=original	!	!	!LO:LB:g=original	!	!	!	!	!
2G\	.	.	1B	ne	-tum	2d/	.	.
2E/	.	.	.	.	.	2e\	.	.
*	*	*	*lig	*	*	*	*	*
1F	ti-	te-	1A	ti-	te-	2c/	ti-	.
.	.	.	.	.	.	1d\	.	te-
=46-	=46-	=46-	=46-	=46-	=46-	=46-	=46-	=46-
1C	.	.	1G	.	.	.	.	.
*	*	*	*	*	*	*custos:c	*	*
!	!	!	!	!	!	!LO:LB:g=original	!	!
.	.	.	.	.	.	1c	.	.
1D	.	.	1F	.	.	.	.	.
.	.	.	.	.	.	2B/	.	.
1C	.	.	1E	.	.	1c	.	.
*	*	*	*Xlig	*	*	*	*	*
=47-	=47-	=47-	=47-	=47-	=47-	=47-	=47-	=47-
*	*	*	*lig	*	*	*	*	*
2BB/	.	.	1G	-me-	-ne-	1d	.	.
2GG/	.	.	.	.	.	.	.	.
1C	-me-	-te-	1G	.	.	1e	-me-	-ne-
*	*	*	*Xlig	*	*	*	*	*
!LO:TX:t=P:problem:dopsek w czerwonych kreskach	!	!	!	!	!	!	!	!
[1FF;l	-as	-as	1F	-as	-as	0c	-as	-as
=48-	=48-	=48-	=48-	=48-	=48-	=48-	=48-	=48-
0.FF]	.	.	0.Fl	.	.	.	.	.
.	.	.	.	.	.	0f;<	.	.
=49||	=49||	=49||	=49||	=49||	=49||	=49||	=49||	=49||
1A	Au-	Con	1A	Au-	Con	1e	Au-	Con-
1B	-dit	-ſi-	1G	-dit	-ſi-	1g	-dit	-ſi-
2A\	et	-li-	1A	et	-li-	2e\	et	-li-
2F\	.	.	.	.	.	2f\	[[fus-	-a-
*custos:G	*	*	*	*	*	*	*	*
!LO:LB:g=original	!	!	!	!	!	!	!	!
=50-	=50-	=50-	=50-	=50-	=50-	=50-	=50-	=50-
1G	ſus-	-a-	1B	ſus-	-a-	2d\	-ci]]	.
.	.	.	.	.	.	1g	ſus-	-ri-
2D/	-ci-	-ri-	1A	-ci-	-ri-	.	.	.
2F\	-pit	-vm	.	.	.	1f	-ci-	.
1C,<	.	.	1G	-pit	-u(m)	.	.	.
*	*	*	*	*	*	*custos:e	*	*
!	!	!	!	!	!	!LO:PB:g=original	!	!
.	.	.	.	.	.	2e\	-pit	-vm
=51-	=51-	=51-	=51-	=51-	=51-	=51-	=51-	=51-
1F	pu-	hu-	1A	pu-	ge-	2f\	pu-	hu-
.	.	.	.	.	.	1c	-el-	-ma-
1D	-el-	-ma-	1F	-el-	-ne-	.	.	.
.	.	.	.	.	.	2B/	.	.
1C	-la	-ni	1G	-la	-ris	1c	-la	-ni
=52-	=52-	=52-	=52-	=52-	=52-	=52-	=52-	=52-
*	*	*	*lig	*	*	*	*	*
1D	nu(n)c-	ge-	1F	nun-	hu-	0A	.	.
1AA	-ci-	.	1E	.	.	.	.	.
1BB	-vm	.	1D	.	.	2F/	nu(n)c-	ge-
.	.	.	.	.	.	2f\	.	.
*	*	*	*Xlig	*	*	*	*	*
=53-	=53-	=53-	=53-	=53-	=53-	=53-	=53-	=53-
1C	.	-ne-	1E	-ci-	ma-	1e	-ci-	.
1FF	.	-ris	1F	-um	-ni	1c	-um	-ne-
*	*	*	*custos:A	*	*	*	*	*
!	!	!	!LO:LB:g=original	!	!	!	!	!
1F	cre-	et	1A	cre-	et	2c/	cre-	-ris
.	.	.	.	.	.	1f\	-dit	et
=54-	=54-	=54-	=54-	=54-	=54-	=54-	=54-	=54-
2F\	-dit	de-	1c,<	-dit	de-	.	.	.
2A\	et	.	.	.	.	2e/	et	de-
*custos:G	*	*	*	*	*	*	*	*
!LO:LB:g=original	!	!	!	!	!	!	!	!
1G	con-	-vm	1d,<	et	-u(m)	1g	con-	.
1C	-ci-	for-	1c	co(n)-	for-	1e	.	-vm
=55-	=55-	=55-	=55-	=55-	=55-	=55-	=55-	=55-
1G	-pit	-ti-	1B	-ce-	-ti-	1d	-ci-	for-
2A\	.	.	1A,<	-pit	-um	2c/	-pit	ci-
2F\	.	.	.	.	.	2f\	et	-v(m)
*	*	*	*	*	*	*custos:d	*	*
!	!	!	!	!	!	!LO:LB:g=original	!	!
1G	et	-vm	1G	et	et	2d/	pa-	et
.	.	.	.	.	.	1e\	.	.
=56-	=56-	=56-	=56-	=56-	=56-	=56-	=56-	=56-
2D/	pa-	et	1A	pa-	p(at)-	.	.	.
2F/	.	.	.	.	.	1d	-rit	pa-
1E	-rit	pa-	1G,<	-rit	-rem	.	.	.
.	.	.	.	.	.	2c/	.	.
1D	fi-	-trem	1F	fi-	poſ-	2d/	.	.
.	.	.	.	.	.	1f\	fi-	-tre(m)
=57-	=57-	=57-	=57-	=57-	=57-	=57-	=57-	=57-
1C	-li-	poſ-	1G	-li-	-te-	.	.	.
.	.	.	.	.	.	2e\	.	.
1F	-u(m)	-te-	1A	-um	-ris	1f	-li-	poſ-
*	*	*	*lig	*	*	*	*	*
1BB	ſed	-ris	1B	.	.	1f	-vm	-te-
=58-	=58-	=58-	=58-	=58-	=58-	=58-	=58-	=58-
*	*	*	*	*	*	*lig	*	*
1D	ad-	in	1A	.	.	1f	ſed	-ris
*	*	*	*Xlig	*	*	*	*	*
1C	.	.	1c	ſed	in	1e	.	.
*	*	*	*	*	*	*Xlig	*	*
*	*	*	*lig	*	*	*	*	*
1BB	.	.	1d	.	.	1f	ad-	in
*custos:C	*	*	*	*	*	*	*	*
!LO:PB:g=original	!	!	!	!	!	!	!	!
=59-	=59-	=59-	=59-	=59-	=59-	=59-	=59-	=59-
!LO:TX:t=P:problem:w tej linijce przy kluczu zbędny bemol B-	!	!	!	!	!	!	!	!
1C	.	.	1c	.	.	1e	.	.
*	*	*	*Xlig	*	*	*	*	*
1D	.	fi-	1F	ad-	fi-	1d	.	.
*	*	*	*lig	*	*	*	*	*
2GG/	-mi-	-de	1G	-mi-	-de	1g	-mi-	fi-
1G\	-ra-	ſta-	.	.	.	.	.	.
=60-	=60-	=60-	=60-	=60-	=60-	=60-	=60-	=60-
.	.	.	1A	.	.	2e/	.	-de
*	*	*	*Xlig	*	*	*	*	*
2F\	.	.	.	.	.	2f\	.	.
*	*	*	*lig	*	*	*	*	*
2G\	.	.	1B	-ra-	ſta-	2d/	ra-	ſta-
*	*	*	*	*	*	*custos:e	*	*
!	!	!	!	!	!	!LO:LB:g=original	!	!
2E/	.	.	.	.	.	2e/	.	.
1F	.	.	1A	.	.	2c/	.	.
.	.	.	.	.	.	1f\	.	.
*	*	*	*Xlig	*	*	*	*	*
=61-	=61-	=61-	=61-	=61-	=61-	=61-	=61-	=61-
*	*	*	*lig	*	*	*	*	*
1C	-bi-	bi-	1G	-bi-	bi-	.	.	.
.	.	.	.	.	.	2e\	-bi-	-bi-
1FF	-le(m)	-lem	1F	.	.	1f	-lem	-lem
*	*	*	*Xlig	*	*	*	*	*
1FF;	.	.	1F	-lem	-lem	1f;<	.	.
*	*	*	*custos:A	*	*	*	*	*
!	!	!	!LO:LB:g=original	!	!	!	!	!
=62||	=62||	=62||	=62||	=62||	=62||	=62||	=62||	=62||
1F	Qvi	.	1A,<	Q(vi)	.	1f	Qvi	.
1E	no-	.	1G	no-	.	1g	no-	.
1D	-bis	.	1A,<	-bis	.	1f	-bis	.
=63-	=63-	=63-	=63-	=63-	=63-	=63-	=63-	=63-
1BB	tri-	.	1B	tri-	.	1d	tri-	.
*custos:F	*	*	*	*	*	*	*	*
!LO:LB:g=original	!	!	!	!	!	!	!	!
!LO:TX:t=P:problem:w tej linijce przy kluczu zbędny bemol B-	!	!	!	!	!	!	!	!
1F	-bu-	.	1A	-bu-	.	2c/	.	.
.	.	.	.	.	.	1f	-bu-	.
1C	-at	.	1G,<	-at	.	.	.	.
.	.	.	.	.	.	2e\	.	.
=64-	=64-	=64-	=64-	=64-	=64-	=64-	=64-	=64-
1FF	pec-	.	1A	p(e)-	.	1f	at	.
2FF/	-ca-	.	1F	-c(a)-	.	2f\	pec-	.
1BB	-ti	.	.	.	.	1d	-ca-	.
.	.	.	1G,<	-ti-	.	.	.	.
*	*	*	*	*	*	*custos:B	*	*
!	!	!	!	!	!	!LO:LB:g=original	!	!
2GG/	ve-	.	.	.	.	2B/	-ti-	.
=65-	=65-	=65-	=65-	=65-	=65-	=65-	=65-	=65-
*	*	*	*lig	*	*	*	*	*
2AA/	.	.	1F	-ve-	.	2c/	-ve	.
2BB/	.	.	.	.	.	1d	.	.
1C	.	.	1E	.	.	.	.	.
.	.	.	.	.	.	1c	.	.
1D	.	.	1D	.	.	.	.	.
.	.	.	.	.	.	2B/	ni-	.
*	*	*	*Xlig	*	*	*	*	*
=66-	=66-	=66-	=66-	=66-	=66-	=66-	=66-	=66-
1C	-ni-	.	1E	-ni-	.	1c	-a(m)	.
1FF	-am	.	1F	-a(m)	.	1c	re-	.
1F	re-	.	1F	re-	.	2c/	-a-	.
.	.	.	.	.	.	2d/	.	.
=67-	=67-	=67-	=67-	=67-	=67-	=67-	=67-	=67-
2C/	.	.	1c	-a-	.	2e\	.	.
1F	-a-	.	.	.	.	1f	.	.
.	.	.	1c,<	-tus	.	.	.	.
2A\	tus	.	.	.	.	2e\	-tus	.
2G\	di-	.	1d	di-	.	2g\	di-	.
*custos:F	*	*	*	*	*	*	*	*
!LO:LB:g=original	!	!	!	!	!	!	!	!
!LO:TX:t=P:problem:w tej linijce przy kluczu zbędny bemol B-	!	!	!	!	!	!	!	!
2F\	-lu-	.	.	.	.	2a\	-lu-	.
=68-	=68-	=68-	=68-	=68-	=68-	=68-	=68-	=68-
1G	-at	.	1B	-lu-	.	1g	.	.
1C	et	.	1c	-at	.	2g\	-at	.
.	.	.	.	.	.	2e\	et	.
*	*	*	*	*	*	*custos:f	*	*
!	!	!	!	!	!	!LO:LB:g=original	!	!
1D	do-	.	1F	et	.	1f	do-	.
=69-	=69-	=69-	=69-	=69-	=69-	=69-	=69-	=69-
1C	.	.	1G	do-	.	1e	-net	.
*	*	*	*lig	*	*	*	*	*
2FF/	.	.	1A	-net	.	1c	.	.
2F\	.	.	.	.	.	.	.	.
2D/	.	.	1B	.	.	1d	.	.
2BB/	-net	.	.	.	.	.	.	.
*	*	*	*Xlig	*	*	*	*	*
*	*	*	*custos:c	*	*	*	*	*
!	!	!	!LO:LB:g=original	!	!	!	!	!
=70-	=70-	=70-	=70-	=70-	=70-	=70-	=70-	=70-
2F\	pa-	.	1c	pa-	.	2f\	.	.
1A	-tri-	.	.	.	.	2e\	.	.
.	.	.	1B	-tri-	.	2f\	.	.
2G\	.	.	.	.	.	2g\	pa-	.
*	*	*	*lig	*	*	*	*	*
2A\	.	.	1A	-a(m)	.	2e\	.	.
2F\	-a(m)	.	.	.	.	2f\	.	.
=71-	=71-	=71-	=71-	=71-	=71-	=71-	=71-	=71-
1G	.	.	1G	.	.	1d	-tri-	.
*custos:D	*	*	*	*	*	*	*	*
!LO:LB:g=original	!	!	!	!	!	!	!	!
*lig	*	*	*	*	*	*	*	*
!LO:TX:t=P:problem:w tej linijce przy kluczu zbędny bemol B-	!	!	!	!	!	!	!	!
1D	in	.	1A	.	.	1d	-am	.
*	*	*	*Xlig	*	*	*	*	*
1C	.	.	1c	in	.	1e	.	.
*Xlig	*	*	*	*	*	*	*	*
=72-	=72-	=72-	=72-	=72-	=72-	=72-	=72-	=72-
*	*	*	*lig	*	*	*	*	*
1BB	ar-	.	1d	.	.	1f	.	.
1C	.	.	1c	.	.	2e\	ni	.
.	.	.	.	.	.	1c	ar-	.
*	*	*	*Xlig	*	*	*	*	*
1D	-ce	.	1F	ar-	.	.	.	.
.	.	.	.	.	.	2B/	-ce	.
=73-	=73-	=73-	=73-	=73-	=73-	=73-	=73-	=73-
1C	.	.	1G	-ce	.	1c	.	.
*	*	*	*	*	*	*custos:A	*	*
!	!	!	!	!	!	!LO:PB:g=original	!	!
*	*	*	*lig	*	*	*	*	*
2FF/	ſi-	.	1F	ſi-	.	1A	ſi-	.
2F\	-de-	.	.	.	.	.	.	.
2G\	.	.	1E	.	.	2G/	.	.
2E\	.	.	.	.	.	1c\	-de-	.
=74-	=74-	=74-	=74-	=74-	=74-	=74-	=74-	=74-
2F\	.	.	1D	.	.	.	.	.
2D/	-de-	.	.	.	.	2B/	.	.
*	*	*	*Xlig	*	*	*	*	*
1C	.	.	1E	de-	.	1c	-ru(m)	.
1FF;	-rum	.	1F;,<	-ru(m)	.	1c;	.	.
*custos:FF	*	*	*	*	*	*	*	*
!LO:LB:g=original	!	!	!	!	!	!	!	!
=75-	=75-	=75-	=75-	=75-	=75-	=75-	=75-	=75-
*lig	*	*	*	*	*	*	*	*
1FF	A-	.	1A	A-	.	0c	A-	.
1C	.	.	1G	.	.	.	.	.
*Xlig	*	*	*	*	*	*	*	*
1BB	.	.	1F	.	.	1d	.	.
=76-	=76-	=76-	=76-	=76-	=76-	=76-	=76-	=76-
*	*	*	*lig	*	*	*	*	*
1C	.	.	1G	.	.	0c	.	.
2FF/	.	.	1E	.	.	.	.	.
2AA/	.	.	.	.	.	.	.	.
*	*	*	*Xlig	*	*	*	*	*
!	!	!	!LO:TX:t=P:problem:nuty zamazane, zapis odtworzony na podstawie tego samego cf w innyym utworze, skan 0191	!	!	!	!	!
1GG	.	.	1B	.	.	1B	.	.
=77-	=77-	=77-	=77-	=77-	=77-	=77-	=77-	=77-
1D	.	.	1A	.	.	1A	.	.
1E	.	.	1B	.	.	1G	.	.
1F	.	.	1c	.	.	2F/	.	.
.	.	.	.	.	.	1f\	.	.
=78-	=78-	=78-	=78-	=78-	=78-	=78-	=78-	=78-
1G	.	.	1d	.	.	.	.	.
.	.	.	.	.	.	2e\	.	.
1F	.	.	1c	.	.	1f	.	.
*	*	*	*	*	*	*custos:e	*	*
!	!	!	!	!	!	!LO:LB:g=original	!	!
1C	.	.	1B	.	.	2e\	.	.
.	.	.	.	.	.	1c\	.	.
=79-	=79-	=79-	=79-	=79-	=79-	=79-	=79-	=79-
1D	.	.	1A	.	.	.	.	.
.	.	.	.	.	.	2B/	.	.
1C	.	.	1G	.	.	1c	.	.
*	*	*	*lig	*	*	*	*	*
1BB	.	.	1B	.	.	1d	.	.
=80-	=80-	=80-	=80-	=80-	=80-	=80-	=80-	=80-
1C	.	.	1B	.	.	1e	.	.
*	*	*	*Xlig	*	*	*	*	*
0FF;;	.	.	1A	-men	.	0f;;	-men	.
.	.	.	1A	.	.	.	.	.
==	==	==	==	==	==	==	==	==
*-	*-	*-	*-	*-	*-	*-	*-	*-
!!!system-decoration: [(s1,s2,s3)]
!!!RDF**kern: < = below
!!!RDF**kern: l = terminal long
!!!ENC: Filip Voros
!!!END: 2021-12-29
!!!ENC: Marta Lawrence
!!!END: 2022--01-04
